server/community/welcome-screen.svg

<?xml version="1.0" encoding="UTF-8" standalone="no"?>
<svg:svg
   viewBox="0 0 310 300"
   width="310"
   height="300"
   style="width: 100%; height: 100%; transform: translate3d(0px, 0px, 0px);"
   preserveAspectRatio="xMidYMid meet"
   version="1.1"
   id="svg89"
   sodipodi:docname="welcome-screen.svg"
   inkscape:version="1.1 (c68e22c387, 2021-05-23)"
   xmlns:inkscape="http://www.inkscape.org/namespaces/inkscape"
   xmlns:sodipodi="http://sodipodi.sourceforge.net/DTD/sodipodi-0.dtd"
   xmlns:svg="http://www.w3.org/2000/svg">
  <script
     id="__gaOptOutExtension" />
  <sodipodi:namedview
     id="namedview91"
     pagecolor="#ffffff"
     bordercolor="#666666"
     borderopacity="1.0"
     inkscape:pageshadow="2"
     inkscape:pageopacity="0.0"
     inkscape:pagecheckerboard="0"
     showgrid="false"
     inkscape:zoom="1.4142136"
     inkscape:cx="49.851028"
     inkscape:cy="208.24295"
     inkscape:window-width="1920"
     inkscape:window-height="1137"
     inkscape:window-x="-8"
     inkscape:window-y="-8"
     inkscape:window-maximized="1"
     inkscape:current-layer="g87" />
  <svg:defs
     id="defs5">
    <svg:clipPath
       id="__lottie_element_2">
      <svg:rect
         width="310"
         height="300"
         x="0"
         y="0"
         id="rect2" />
    </svg:clipPath>
  </svg:defs>
  <svg:g
     clip-path="url(#__lottie_element_2)"
     id="g87">
    <svg:path
       style="fill:#ffffff;fill-opacity:1;stroke:none;stroke-width:1px;stroke-linecap:butt;stroke-linejoin:miter;stroke-opacity:1"
       d="m 155.43091,35.576309 c -9.89942,0.551543 -9.61557,14.504747 -0.006,15.023453 5.11773,-0.328806 10.53904,3.978092 10.40599,10.335805 0.59317,9.819429 14.3141,9.884413 14.9911,-0.0037 -0.34115,-15.773293 -12.72224,-25.594457 -25.39089,-25.355582 z"
       id="path3248"
       sodipodi:nodetypes="ccccc" />
    <svg:path
       style="fill:#ffffff;stroke:none;stroke-width:1px;stroke-linecap:butt;stroke-linejoin:miter;stroke-opacity:1;fill-opacity:1"
       d="m 155.4751,8.9493199 c 26.98557,-0.1672843 52.09427,20.9030081 51.95182,52.3908121 -1.6094,9.190631 -13.80579,8.342955 -14.9171,-0.04281 -0.0993,-25.26441 -20.7973,-37.956436 -37.04577,-37.377221 -9.57924,-1.140072 -9.15684,-14.0424193 0.0111,-14.9707811 z"
       id="path1224"
       sodipodi:nodetypes="ccccc" />
    <svg:path
       style="fill:#ffffff;fill-opacity:1;stroke:none;stroke-width:1px;stroke-linecap:butt;stroke-linejoin:miter;stroke-opacity:1"
       d="m 57.10833,184.55841 c 9.89942,-0.55154 9.61557,-14.50475 0.006,-15.02345 -5.11773,0.3288 -10.53904,-3.9781 -10.40599,-10.33581 -0.59317,-9.81943 -14.3141,-9.88441 -14.9911,0.004 0.34115,15.77329 12.72224,25.59446 25.39089,25.35558 z"
       id="path3248-8"
       sodipodi:nodetypes="ccccc" />
    <svg:path
       style="fill:#ffffff;stroke:none;stroke-width:1px;stroke-linecap:butt;stroke-linejoin:miter;stroke-opacity:1;fill-opacity:1"
       d="M 57.12129,211.40191 C 30.13572,211.5692 5.0270201,190.4989 5.1694701,159.0111 c 1.6094,-9.19063 13.8057899,-8.34296 14.9170999,0.0428 0.0993,25.26441 20.7973,37.95644 37.04577,37.37722 9.57924,1.14007 9.15684,14.04242 -0.0111,14.97078 z"
       id="path1224-1"
       sodipodi:nodetypes="ccccc" />
    <svg:g
       style="display: block;"
       transform="matrix(1,0,0,1,149.30599975585938,108.10599517822266)"
       opacity="1"
       id="g73" />
    <svg:g
       id="g1490"
       style="fill:#ffffff;fill-opacity:1">
      <svg:g
         style="display:block;fill:#ffffff;fill-opacity:1"
         transform="matrix(1,0,0,1,228.6999969482422,125.64999389648438)"
         opacity="1"
         id="g31">
        <svg:g
           opacity="1"
           id="g29"
           transform="matrix(1,0,0,1,0,0)"
           style="fill:#ffffff;fill-opacity:1">
          <svg:path
             fill="rgb(255,216,54)"
             fill-opacity="1"
             d=" M0,-53.45000076293945 C0,-53.45000076293945 0,-53.45000076293945 0,-53.45000076293945 C10.770000457763672,-53.45000076293945 19.5,-44.720001220703125 19.5,-33.95000076293945 C19.5,-33.95000076293945 19.5,43.45000076293945 19.5,43.45000076293945 C19.5,48.972999572753906 15.02299976348877,53.45000076293945 9.5,53.45000076293945 C9.5,53.45000076293945 -9.5,53.45000076293945 -9.5,53.45000076293945 C-15.02299976348877,53.45000076293945 -19.5,48.972999572753906 -19.5,43.45000076293945 C-19.5,43.45000076293945 -19.5,-33.95000076293945 -19.5,-33.95000076293945 C-19.5,-44.720001220703125 -10.770000457763672,-53.45000076293945 0,-53.45000076293945z"
             id="path27"
             style="fill:#ffffff;fill-opacity:1" />
        </svg:g>
      </svg:g>
      <svg:g
         style="display:block;fill:#ffffff;fill-opacity:1"
         transform="matrix(0.89483954,0,0,0.89542548,157.2536,91.446128)"
         opacity="1"
         id="g49-4">
        <svg:g
           opacity="1"
           id="g47-9"
           style="fill:#ffffff;fill-opacity:1">
          <svg:path
             fill="rgb(255,216,54)"
             fill-opacity="1"
             d="m 40.073002,39.984001 c 0,0 -0.059,0.06 -0.059,0.06 -6.169998,6.170002 -16.174999,6.170002 -22.344999,0 0,0 -57.742003,-57.742998 -57.742003,-57.742998 -6.169998,-6.17 -6.169998,-16.175002 0,-22.345 0,0 0,0 0,0 0,0 0,0 0,0 6.170002,-6.170002 16.174002,-6.170002 22.344002,0 0,0 0,0 0,0 0,0 57.791,57.671999 57.791,57.671999 6.181,6.168 6.186001,16.180998 0.011,22.356001 z"
             id="path45-4"
             style="fill:#ffffff;fill-opacity:1" />
        </svg:g>
      </svg:g>
      <svg:g
         style="display:block;fill:#ffffff;fill-opacity:1"
         transform="matrix(0.89483954,0,0,0.89542548,102.18961,125.91642)"
         opacity="1"
         id="g49-4-5">
        <svg:g
           opacity="1"
           id="g47-9-35"
           style="fill:#ffffff;fill-opacity:1">
          <svg:path
             fill="rgb(255,216,54)"
             fill-opacity="1"
             d="m 40.073002,39.984001 c 0,0 -0.059,0.06 -0.059,0.06 -6.169998,6.170002 -16.174999,6.170002 -22.344999,0 0,0 -57.742003,-57.742998 -57.742003,-57.742998 -6.169998,-6.17 -6.169998,-16.175002 0,-22.345 0,0 0,0 0,0 0,0 0,0 0,0 6.170002,-6.170002 16.174002,-6.170002 22.344002,0 0,0 0,0 0,0 0,0 57.791,57.671999 57.791,57.671999 6.181,6.168 6.186001,16.180998 0.011,22.356001 z"
             id="path45-4-4"
             style="fill:#ffffff;fill-opacity:1" />
        </svg:g>
      </svg:g>
      <svg:g
         style="display:block;fill:#ffffff;fill-opacity:1"
         transform="matrix(1,0,0,1,92.2760009765625,163.23300170898438)"
         opacity="1"
         id="g55">
        <svg:g
           opacity="1"
           id="g53"
           transform="matrix(1,0,0,1,0,0)"
           style="fill:#ffffff;fill-opacity:1">
          <svg:path
             fill="rgb(255,216,54)"
             fill-opacity="1"
             d=" M30.80900001525879,30.72599983215332 C30.80900001525879,30.72599983215332 30.753999710083008,30.7810001373291 30.753999710083008,30.7810001373291 C24.583999633789062,36.95100021362305 14.579000473022461,36.95100021362305 8.409000396728516,30.7810001373291 C8.409000396728516,30.7810001373291 -30.80900001525879,-8.437000274658203 -30.80900001525879,-8.437000274658203 C-36.979000091552734,-14.607000350952148 -36.979000091552734,-24.611000061035156 -30.80900001525879,-30.7810001373291 C-30.80900001525879,-30.7810001373291 -30.80900001525879,-30.7810001373291 -30.80900001525879,-30.7810001373291 C-30.80900001525879,-30.7810001373291 -30.80900001525879,-30.7810001373291 -30.80900001525879,-30.7810001373291 C-24.638999938964844,-36.95100021362305 -14.633999824523926,-36.95100021362305 -8.46399974822998,-30.7810001373291 C-8.46399974822998,-30.7810001373291 -8.46399974822998,-30.7810001373291 -8.46399974822998,-30.7810001373291 C-8.46399974822998,-30.7810001373291 30.792999267578125,8.366000175476074 30.792999267578125,8.366000175476074 C36.97800064086914,14.534000396728516 36.98500061035156,24.549999237060547 30.80900001525879,30.72599983215332z"
             id="path51"
             style="fill:#ffffff;fill-opacity:1" />
        </svg:g>
      </svg:g>
      <svg:g
         style="display:block;fill:#ffffff;fill-opacity:1"
         transform="matrix(0.89483954,0,0,0.89542548,119.37361,98.36541)"
         opacity="1"
         id="g49-4-1">
        <svg:g
           opacity="1"
           id="g47-9-3-5"
           style="display:block;fill:#ffffff;fill-opacity:1"
           transform="translate(30.449333,30.503861)" />
        <svg:g
           opacity="1"
           id="g47-9-3"
           style="fill:#ffffff;fill-opacity:1">
          <svg:path
             fill="rgb(255,216,54)"
             fill-opacity="1"
             d="M 26.050394,48.559506 -40.073,-17.698997 c -6.169998,-6.17 -6.169998,-16.175002 0,-22.345 v 0 0 c 6.170002,-6.170002 16.174002,-6.170002 22.344002,0 v 0 l 70.363086,70.515055 c -26.583694,18.088448 0,0 -26.583694,18.088448 z"
             id="path45-4-0"
             style="fill:#ffffff;fill-opacity:1"
             sodipodi:nodetypes="ccscssccc" />
        </svg:g>
      </svg:g>
      <svg:g
         style="display:block;fill:#ffffff;fill-opacity:1"
         transform="matrix(1,0,0,1,3,4)"
         opacity="1"
         id="g67">
        <svg:g
           opacity="1"
           id="g65"
           transform="matrix(1,0,0,1,0,0)"
           style="fill:#ffffff;fill-opacity:1">
          <svg:g
             opacity="1"
             transform="matrix(1,0,0,1,167.70599365234375,169.072998046875)"
             id="g59"
             style="fill:#ffffff;fill-opacity:1">
            <svg:path
               fill="rgb(255,216,54)"
               fill-opacity="1"
               d="M 55.078999,-33.158001 23.344,-64.892998 c -6.228001,-6.228004 -16.3259999,-6.228004 -22.55399998,0 l -8.77518442,8.775184 c 0.4151537,0.450977 0.7096075,1.183405 0.3398445,1.968751 -0.2873837,0.617768 -0.8259259,0.90943 -1.3398428,0.988282 -0.5179505,0.05906 -1.0112831,-0.07062 -1.4667983,-0.490231 l -19.99414,19.994137 c 0.434006,0.429594 0.574086,1.047723 0.38086,1.673828 -0.253116,0.602761 -0.60875,0.804766 -0.97461,0.966797 -0.609562,0.175652 -1.172892,0.09072 -1.667969,-0.378907 l -20.04297,20.042968 c 0.41434,0.459465 0.621136,1.005407 0.412109,1.7246089 -0.198747,0.5923528 -0.578742,0.878463 -0.945312,1.0429687 -0.679767,0.247898 -1.30842,0.1720722 -1.863282,-0.3710938 L -66.317001,2.214 c -6.227997,6.2280004 -6.227997,16.326001 0,22.554 l 32.330001,32.33 0.076,-0.076 0.005,0.005 0.093,0.093 C -8.3249998,82.556001 32.958,82.515 58.394001,57.027 70.686996,44.835999 77.598999,28.239 77.594002,10.927 V -1.045 c 0,-6.6910001 -2.727005,-13.093 -7.551003,-17.73 z"
               id="path57"
               style="fill:#ffffff;fill-opacity:1"
               sodipodi:nodetypes="cssccccccccccccssccscccscc" />
          </svg:g>
          <svg:g
             opacity="1"
             transform="matrix(1,0,0,1,169.26600646972656,171.13999938964844)"
             id="g63"
             style="fill:#ffffff;fill-opacity:1" />
        </svg:g>
      </svg:g>
    </svg:g>
  </svg:g>
</svg:svg>

<?xml version="1.0" encoding="UTF-8" standalone="no"?>
<!-- Created with Inkscape (http://www.inkscape.org/) -->

<svg
   width="24mm"
   height="24mm"
   viewBox="0 0 24 24"
   version="1.1"
   id="svg5"
   inkscape:version="1.1 (c68e22c387, 2021-05-23)"
   sodipodi:docname="Zeichnung.svg"
   xmlns:inkscape="http://www.inkscape.org/namespaces/inkscape"
   xmlns:sodipodi="http://sodipodi.sourceforge.net/DTD/sodipodi-0.dtd"
   xmlns="http://www.w3.org/2000/svg"
   xmlns:svg="http://www.w3.org/2000/svg">
  <sodipodi:namedview
     id="namedview7"
     pagecolor="#ffffff"
     bordercolor="#666666"
     borderopacity="1.0"
     inkscape:pageshadow="2"
     inkscape:pageopacity="0.0"
     inkscape:pagecheckerboard="0"
     inkscape:document-units="mm"
     showgrid="false"
     inkscape:zoom="2.7758979"
     inkscape:cx="128.06667"
     inkscape:cy="108.97375"
     inkscape:window-width="1920"
     inkscape:window-height="1137"
     inkscape:window-x="-8"
     inkscape:window-y="-8"
     inkscape:window-maximized="1"
     inkscape:current-layer="layer1" />
  <defs
     id="defs2" />
  <g
     inkscape:label="Ebene 1"
     inkscape:groupmode="layer"
     id="layer1">
    <path
       style="fill:#ffffff;fill-opacity:1;stroke:none;stroke-width:0.078147px;stroke-linecap:butt;stroke-linejoin:miter;stroke-opacity:1"
       d="m 13.742548,4.0809003 c -0.773611,0.043101 -0.75143,1.1335043 -4.72e-4,1.1740398 0.399936,-0.025697 0.823596,0.3108765 0.813198,0.8077136 0.04635,0.7673603 1.118607,0.7724387 1.171512,-2.892e-4 C 15.700136,4.8297267 14.732579,4.062231 13.74256,4.0808984 Z"
       id="path3248"
       sodipodi:nodetypes="ccccc" />
    <path
       style="fill:#ffffff;fill-opacity:1;stroke:none;stroke-width:0.078147px;stroke-linecap:butt;stroke-linejoin:miter;stroke-opacity:1"
       d="m 13.746001,2.0000773 c 2.108845,-0.013073 4.071019,1.6335103 4.059887,4.094192 -0.12577,0.7182216 -1.078883,0.6519781 -1.165729,-0.00335 C 16.632359,4.116578 15.01491,3.1247325 13.745139,3.1699965 12.996548,3.0809035 13.029558,2.0726217 13.74601,2.0000727 Z"
       id="path1224"
       sodipodi:nodetypes="ccccc" />
    <path
       style="fill:#ffffff;fill-opacity:1;stroke:none;stroke-width:0.078147px;stroke-linecap:butt;stroke-linejoin:miter;stroke-opacity:1"
       d="m 6.0589204,15.723424 c 0.7736113,-0.0431 0.7514292,-1.133505 4.696e-4,-1.174039 -0.3999359,0.0257 -0.8235958,-0.310877 -0.8131984,-0.807715 -0.046355,-0.76736 -1.1186059,-0.772439 -1.1715115,3.25e-4 0.02666,1.232638 0.9942067,2.000135 1.9842254,1.981466 z"
       id="path3248-8"
       sodipodi:nodetypes="ccccc" />
    <path
       style="fill:#ffffff;fill-opacity:1;stroke:none;stroke-width:0.078147px;stroke-linecap:butt;stroke-linejoin:miter;stroke-opacity:1"
       d="m 6.0599332,17.821167 c -2.1088452,0.01307 -4.0710181,-1.633511 -4.0598861,-4.094192 0.1257701,-0.718222 1.078883,-0.651979 1.1657287,0.0033 0.00776,1.974342 1.6252495,2.966187 2.8950208,2.920923 0.7485902,0.08909 0.7155809,1.097374 -8.708e-4,1.169923 z"
       id="path1224-1"
       sodipodi:nodetypes="ccccc" />
    <g
       id="g1490"
       style="fill:#ffffff;fill-opacity:1"
       transform="matrix(0.07814713,0,0,0.07814713,1.5960679,1.3007135)">
      <g
         style="display:block;fill:#ffffff;fill-opacity:1"
         transform="translate(228.7,125.64999)"
         opacity="1"
         id="g31">
        <g
           opacity="1"
           id="g29"
           style="fill:#ffffff;fill-opacity:1">
          <path
             fill="rgb(255,216,54)"
             fill-opacity="1"
             d="m 0,-53.450001 c 0,0 0,0 0,0 10.77,0 19.5,8.73 19.5,19.5 0,0 0,77.400002 0,77.400002 0,5.522999 -4.477,10 -10,10 0,0 -19,0 -19,0 -5.523,0 -10,-4.477001 -10,-10 0,0 0,-77.400002 0,-77.400002 0,-10.77 8.73,-19.5 19.5,-19.5 z"
             id="path27"
             style="fill:#ffffff;fill-opacity:1" />
        </g>
      </g>
      <g
         style="display:block;fill:#ffffff;fill-opacity:1"
         transform="matrix(0.89483954,0,0,0.89542548,157.2536,91.446128)"
         opacity="1"
         id="g49-4">
        <g
           opacity="1"
           id="g47-9"
           style="fill:#ffffff;fill-opacity:1">
          <path
             fill="rgb(255,216,54)"
             fill-opacity="1"
             d="m 40.073002,39.984001 c 0,0 -0.059,0.06 -0.059,0.06 -6.169998,6.170002 -16.174999,6.170002 -22.344999,0 0,0 -57.742003,-57.742998 -57.742003,-57.742998 -6.169998,-6.17 -6.169998,-16.175002 0,-22.345 0,0 0,0 0,0 0,0 0,0 0,0 6.170002,-6.170002 16.174002,-6.170002 22.344002,0 0,0 0,0 0,0 0,0 57.791,57.671999 57.791,57.671999 6.181,6.168 6.186001,16.180998 0.011,22.356001 z"
             id="path45-4"
             style="fill:#ffffff;fill-opacity:1" />
        </g>
      </g>
      <g
         style="display:block;fill:#ffffff;fill-opacity:1"
         transform="matrix(0.89483954,0,0,0.89542548,102.18961,125.91642)"
         opacity="1"
         id="g49-4-5">
        <g
           opacity="1"
           id="g47-9-35"
           style="fill:#ffffff;fill-opacity:1">
          <path
             fill="rgb(255,216,54)"
             fill-opacity="1"
             d="m 40.073002,39.984001 c 0,0 -0.059,0.06 -0.059,0.06 -6.169998,6.170002 -16.174999,6.170002 -22.344999,0 0,0 -57.742003,-57.742998 -57.742003,-57.742998 -6.169998,-6.17 -6.169998,-16.175002 0,-22.345 0,0 0,0 0,0 0,0 0,0 0,0 6.170002,-6.170002 16.174002,-6.170002 22.344002,0 0,0 0,0 0,0 0,0 57.791,57.671999 57.791,57.671999 6.181,6.168 6.186001,16.180998 0.011,22.356001 z"
             id="path45-4-4"
             style="fill:#ffffff;fill-opacity:1" />
        </g>
      </g>
      <g
         style="display:block;fill:#ffffff;fill-opacity:1"
         transform="translate(92.276001,163.233)"
         opacity="1"
         id="g55">
        <g
           opacity="1"
           id="g53"
           style="fill:#ffffff;fill-opacity:1">
          <path
             fill="rgb(255,216,54)"
             fill-opacity="1"
             d="m 30.809,30.726 c 0,0 -0.055,0.055 -0.055,0.055 -6.17,6.17 -16.175,6.17 -22.3449996,0 0,0 -39.2180004,-39.2180003 -39.2180004,-39.2180003 -6.17,-6.1699997 -6.17,-16.1739997 0,-22.3439997 0,0 0,0 0,0 0,0 0,0 0,0 6.17,-6.17 16.175,-6.17 22.3450003,0 0,0 0,0 0,0 0,0 39.2569987,39.1470002 39.2569987,39.1470002 C 36.978001,14.534 36.985001,24.549999 30.809,30.726 Z"
             id="path51"
             style="fill:#ffffff;fill-opacity:1" />
        </g>
      </g>
      <g
         style="display:block;fill:#ffffff;fill-opacity:1"
         transform="matrix(0.89483954,0,0,0.89542548,119.37361,98.36541)"
         opacity="1"
         id="g49-4-1">
        <g
           opacity="1"
           id="g47-9-3-5"
           style="display:block;fill:#ffffff;fill-opacity:1"
           transform="translate(30.449333,30.503861)" />
        <g
           opacity="1"
           id="g47-9-3"
           style="fill:#ffffff;fill-opacity:1">
          <path
             fill="rgb(255,216,54)"
             fill-opacity="1"
             d="M 26.050394,48.559506 -40.073,-17.698997 c -6.169998,-6.17 -6.169998,-16.175002 0,-22.345 v 0 0 c 6.170002,-6.170002 16.174002,-6.170002 22.344002,0 v 0 l 70.363086,70.515055 c -26.583694,18.088448 0,0 -26.583694,18.088448 z"
             id="path45-4-0"
             style="fill:#ffffff;fill-opacity:1"
             sodipodi:nodetypes="ccscssccc" />
        </g>
      </g>
      <g
         style="display:block;fill:#ffffff;fill-opacity:1"
         transform="translate(3,4)"
         opacity="1"
         id="g67">
        <g
           opacity="1"
           id="g65"
           style="fill:#ffffff;fill-opacity:1">
          <g
             opacity="1"
             transform="translate(167.70599,169.073)"
             id="g59"
             style="fill:#ffffff;fill-opacity:1">
            <path
               fill="rgb(255,216,54)"
               fill-opacity="1"
               d="M 55.078999,-33.158001 23.344,-64.892998 c -6.228001,-6.228004 -16.3259999,-6.228004 -22.55399998,0 l -8.77518442,8.775184 c 0.4151537,0.450977 0.7096075,1.183405 0.3398445,1.968751 -0.2873837,0.617768 -0.8259259,0.90943 -1.3398428,0.988282 -0.5179505,0.05906 -1.0112831,-0.07062 -1.4667983,-0.490231 l -19.99414,19.994137 c 0.434006,0.429594 0.574086,1.047723 0.38086,1.673828 -0.253116,0.602761 -0.60875,0.804766 -0.97461,0.966797 -0.609562,0.175652 -1.172892,0.09072 -1.667969,-0.378907 l -20.04297,20.042968 c 0.41434,0.459465 0.621136,1.005407 0.412109,1.7246089 -0.198747,0.5923528 -0.578742,0.878463 -0.945312,1.0429687 -0.679767,0.247898 -1.30842,0.1720722 -1.863282,-0.3710938 L -66.317001,2.214 c -6.227997,6.2280004 -6.227997,16.326001 0,22.554 l 32.330001,32.33 0.076,-0.076 0.005,0.005 0.093,0.093 C -8.3249998,82.556001 32.958,82.515 58.394001,57.027 70.686996,44.835999 77.598999,28.239 77.594002,10.927 V -1.045 c 0,-6.6910001 -2.727005,-13.093 -7.551003,-17.73 z"
               id="path57"
               style="fill:#ffffff;fill-opacity:1"
               sodipodi:nodetypes="cssccccccccccccssccscccscc" />
          </g>
          <g
             opacity="1"
             transform="translate(169.26601,171.14)"
             id="g63"
             style="fill:#ffffff;fill-opacity:1" />
        </g>
      </g>
    </g>
  </g>
</svg>
